src/assets/images/prem-agent.svg

<svg fill="none" height="27" viewBox="0 0 23 27" width="23" xmlns="http://www.w3.org/2000/svg"><g fill="#fff"><path d="m14.1788 15.5834c-3.2514 1.7737-7.33678.5771-9.11798-2.6606-1.78119-3.23777-.57959-7.30607 2.67179-9.07979 3.25139-1.77372 7.33679-.57716 9.11799 2.66058 1.7812 3.23775.5655 7.32011-2.6718 9.07981zm-5.287-9.62882c-2.09219 1.14025-2.85556 3.74453-1.71051 5.82792 1.14505 2.0835 3.76031 2.8436 5.85251 1.7034 2.0922-1.1403 2.8555-3.74456 1.7105-5.82798-1.1451-2.08342-3.7744-2.84359-5.8525-1.70334z"/><path d="m12.3267 20.454c-.1413.0845-.311.1267-.4806.1408-4.31161.3519-8.43945-1.8582-10.51751-5.645-2.88383-5.27891-.933005-11.92333 4.36816-14.809146.5796-.323775 1.31469-.0985401 1.62569.478624.31101.577162.09896 1.309172-.48063 1.618872-4.12785 2.26642-5.65458 7.44682-3.39275 11.57145 1.62569 2.9562 4.8488 4.6877 8.21324 4.4061.6644-.0563 1.244.4364 1.3006 1.098.0283.4787-.2262.9151-.6362 1.1403z"/><path d="m19.5511 16.2873c-.3816.2111-.8764.1971-1.2581-.0704-.5513-.3801-.6786-1.1262-.311-1.6611 1.8519-2.6606 2.0215-6.08135.4665-8.92493-.3251-.57717-.099-1.30918.4806-1.61888.5796-.32377 1.3147-.09854 1.6257.47863 1.9933 3.6319 1.7671 8.02398-.5937 11.43068-.099.1689-.2403.2815-.41.366z"/><path d="m21.954 18.8915-9.429 5.1241c-.5796.3237-1.3147.0985-1.6257-.4787-.3251-.5771-.0989-1.3091.4807-1.6188l9.429-5.1241c.5796-.3238 1.3147-.0986 1.6257.4786s.0989 1.3092-.4807 1.6189z"/><path d="m22.3774 23.4806-6.2059 3.3785c-.5796.3238-1.3147.0985-1.6257-.4786-.3251-.5772-.0989-1.3092.4807-1.6189l6.2059-3.3785c.5796-.3238 1.3147-.0986 1.6257.4786s.0989 1.2951-.4807 1.6189z"/></g></svg>

<svg width="23" height="27" viewBox="0 0 23 27" fill="none" xmlns="http://www.w3.org/2000/svg">
<path d="M14.1788 15.5834C10.9274 17.3571 6.84202 16.1605 5.06082 12.9228C3.27963 9.68503 4.48123 5.61673 7.73261 3.84301C10.984 2.06929 15.0694 3.26585 16.8506 6.50359C18.6318 9.74134 17.4161 13.8237 14.1788 15.5834ZM8.8918 5.95458C6.79961 7.09483 6.03624 9.69911 7.18129 11.7825C8.32634 13.866 10.9416 14.6261 13.0338 13.4859C15.126 12.3456 15.8893 9.74134 14.7443 7.65792C13.5992 5.5745 10.9699 4.81433 8.8918 5.95458Z" fill="white"/>
<path d="M12.3267 20.454C12.1854 20.5385 12.0157 20.5807 11.8461 20.5948C7.53449 20.9467 3.40665 18.7366 1.32859 14.9498C-1.55524 9.67089 0.395585 3.02647 5.69675 0.140654C6.27635 -0.183121 7.01144 0.0421139 7.32244 0.619278C7.63345 1.19644 7.4214 1.92845 6.84181 2.23815C2.71396 4.50457 1.18723 9.68497 3.44906 13.8096C5.07475 16.7658 8.29786 18.4973 11.6623 18.2157C12.3267 18.1594 12.9063 18.6521 12.9629 19.3137C12.9912 19.7924 12.7367 20.2288 12.3267 20.454Z" fill="white"/>
<path d="M19.5511 16.2873C19.1695 16.4984 18.6747 16.4844 18.293 16.2169C17.7417 15.8368 17.6144 15.0907 17.982 14.5558C19.8339 11.8952 20.0035 8.47445 18.4485 5.63087C18.1234 5.0537 18.3495 4.32169 18.9291 4.01199C19.5087 3.68822 20.2438 3.91345 20.5548 4.49062C22.5481 8.12252 22.3219 12.5146 19.9611 15.9213C19.8621 16.0902 19.7208 16.2028 19.5511 16.2873Z" fill="white"/>
<path d="M21.954 18.8915L12.525 24.0156C11.9454 24.3393 11.2103 24.1141 10.8993 23.5369C10.5742 22.9598 10.8004 22.2278 11.38 21.9181L20.809 16.794C21.3886 16.4702 22.1237 16.6954 22.4347 17.2726C22.7457 17.8498 22.5336 18.5818 21.954 18.8915Z" fill="white"/>
<path d="M22.3774 23.4806L16.1715 26.8591C15.5919 27.1829 14.8568 26.9576 14.5458 26.3805C14.2207 25.8033 14.4469 25.0713 15.0265 24.7616L21.2324 21.3831C21.812 21.0593 22.5471 21.2845 22.8581 21.8617C23.1691 22.4389 22.957 23.1568 22.3774 23.4806Z" fill="white"/>
</svg>
